X:262
M:2/4
L:1/8
K:G
ef|ga ge|dB GB|A2 Ac|B2 F2 |1 G4-|G2:|2 G4-|G4 |:g3 a|b2 ag|fe fg|a2

